X:5087
T:Mick Doran's
M:9/8
R:Slip Jig
L:1/8
Q:180
C:Aidan Crossey
K:G
|:DGB BAG BAG|FGA DFA cBA|DGB BAG BAG|FED cAF G3:||
|:Bcd dBG dBG|cde ecA ecA|Bcd dBG dBG|FED cAF G3:||
